templates/flag_icons/ceu.svg

<?xml version="1.0" encoding="UTF-8" standalone="no"?>
<svg width="23px" height="17px" viewBox="0 0 23 17" version="1.1" xmlns="http://www.w3.org/2000/svg" xmlns:xlink="http://www.w3.org/1999/xlink">
    <!-- Generator: Sketch 3.7.2 (28276) - http://www.bohemiancoding.com/sketch -->
    <title>CEU</title>
    <desc>Created with Sketch.</desc>
    <defs>
        <linearGradient x1="50%" y1="0%" x2="50%" y2="100%" id="linearGradient-1">
            <stop stop-color="#FFFFFF" offset="0%"></stop>
            <stop stop-color="#F0F0F0" offset="100%"></stop>
        </linearGradient>
        <rect id="path-2" x="0" y="0" width="21" height="15" rx="1.5"></rect>
        <filter x="-50%" y="-50%" width="200%" height="200%" filterUnits="objectBoundingBox" id="filter-4">
            <feOffset dx="0" dy="0.5" in="SourceAlpha" result="shadowOffsetOuter1"></feOffset>
            <feGaussianBlur stdDeviation="0.5" in="shadowOffsetOuter1" result="shadowBlurOuter1"></feGaussianBlur>
            <feColorMatrix values="0 0 0 0 0   0 0 0 0 0   0 0 0 0 0  0 0 0 0.16 0" type="matrix" in="shadowBlurOuter1"></feColorMatrix>
        </filter>
        <linearGradient x1="50%" y1="0%" x2="50%" y2="100%" id="linearGradient-5">
            <stop stop-color="#19BFBF" offset="0%"></stop>
            <stop stop-color="#10ACAC" offset="100%"></stop>
        </linearGradient>
        <path d="M13.1741867,13.3258133 C13.0779861,13.4220139 12.9215317,13.4215317 12.8258133,13.3258133 L12.1741867,12.6741867 C12.0779861,12.577986 11.9671936,12.4015808 11.921875,12.265625 L11.578125,11.234375 C11.5349778,11.1049333 11.3840332,11 11.25,11 C11.1119288,11 11.0268822,11.1075287 11.0613098,11.2452393 L11.4386902,12.7547607 C11.4725507,12.8902026 11.421875,13.078125 11.3194885,13.1805115 L11.1805115,13.3194885 C11.0808177,13.4191823 10.921875,13.421875 10.8194885,13.3194885 L10.6805115,13.1805115 C10.5808177,13.0808177 10.5,12.8929825 10.5,12.7476578 L10.5,12.2523422 C10.5,12.1129775 10.4538574,11.9077148 10.3840332,11.7680664 L10.1159668,11.2319336 C10.0519201,11.1038402 9.88229753,11 9.75230552,11 L8.7476945,11 C8.61089661,11 8.40771485,11.0461426 8.26806642,11.1159668 L7.7319336,11.3840332 C7.60384022,11.4480799 7.46719361,11.5984192 7.42187501,11.734375 L7.07812501,12.765625 C7.03497776,12.8950667 6.90771485,13.0461426 6.76806642,13.1159668 L6.2319336,13.3840332 C6.10384022,13.4480799 5.90771485,13.4538574 5.76806642,13.3840332 L5.2319336,13.1159668 C5.10384022,13.0519201 5.00000001,12.8924713 5.00000001,12.7547607 L5.00000001,11.2452393 C5.00000001,11.1097974 5.11770249,11 5.2476945,11 L6.25230552,11 C6.38910341,11 6.50000001,10.8929825 6.50000001,10.7476578 L6.50000001,10.2523422 C6.50000001,10.1129775 6.53280641,9.90158081 6.57812501,9.76562499 L6.92187501,8.73437499 C6.96502226,8.60493326 7.10701753,8.49999999 7.25234223,8.49999999 L7.74765779,8.49999999 C7.88702255,8.49999999 8.09228517,8.45385742 8.2319336,8.3840332 L8.76806642,8.11596679 C8.8961598,8.0519201 9.10701754,7.99999999 9.25234226,7.99999999 L9.74765785,7.99999999 C9.88702263,7.99999999 10.0000001,7.8840332 10.0000001,7.74999999 C10.0000001,7.61192881 10.0781251,7.42187499 10.1805116,7.31948852 L10.3194886,7.18051147 C10.4191824,7.08081773 10.5461427,7.09228515 10.6159669,7.23193359 L10.8840332,7.7680664 C10.9480799,7.89615979 11.1177025,7.99999999 11.2476945,7.99999999 L12.2523055,7.99999999 C12.3891034,7.99999999 12.5328064,7.90158081 12.578125,7.76562499 L12.921875,6.73437499 C12.9650223,6.60493326 13.1070175,6.49999999 13.2523422,6.49999999 L13.7476578,6.49999999 C13.8870225,6.49999999 14,6.3840332 14,6.24999999 C14,6.11192881 13.8929825,5.99999999 13.7476578,5.99999999 L13.2523422,5.99999999 C13.1129775,5.99999999 13,5.89298248 13,5.74765777 L13,5.25234222 C13,5.11297746 13.0461426,4.90771484 13.1159668,4.7680664 L13.3840332,4.23193359 C13.4480799,4.1038402 13.421875,3.92187499 13.3194885,3.81948852 L13.1805115,3.68051147 C13.0808177,3.58081773 12.9215317,3.57846832 12.8258133,3.6741867 L12.1741868,4.32581329 C12.0779861,4.42201395 12.0000001,4.60701751 12.0000001,4.75234222 L12.0000001,5.24765777 C12.0000001,5.38702253 11.9671937,5.59841918 11.9218751,5.73437499 L11.5781251,6.76562499 C11.5349779,6.89506673 11.3840333,6.99999999 11.2500001,6.99999999 C11.1119289,6.99999999 10.9218751,6.92187499 10.8194886,6.81948852 L10.6805116,6.68051147 C10.5808178,6.58081773 10.5000001,6.3840332 10.5000001,6.24999999 C10.5,6.11192881 10.4077149,6.04614257 10.2680664,6.11596679 L9.7319336,6.3840332 C9.60384022,6.44807989 9.42187502,6.42187499 9.31948857,6.31948852 L9.18051154,6.18051147 C9.08081782,6.08081773 9.0000001,5.89298247 9.0000001,5.74765777 L9.0000001,5.25234222 C9.0000001,5.11297746 9.07846842,4.92153167 9.1741868,4.82581328 L9.82581337,4.17418667 C9.92201403,4.07798601 10.0806466,3.91935345 10.1720691,3.82793089 L11.3279309,2.67206906 C11.4229621,2.57703794 11.5984192,2.4671936 11.734375,2.42187499 L12.7656249,2.07812499 C12.8950666,2.03497775 13.1070174,1.99999999 13.2523421,1.99999999 L13.7476578,1.99999999 C13.8870225,1.99999999 14.0461426,2.09228515 14.1159668,2.23193359 L14.3840332,2.7680664 C14.4480799,2.89615979 14.5,3.11770248 14.5,3.24769449 L14.5,4.2523055 C14.5,4.38910339 14.578125,4.57812499 14.6805115,4.68051147 L14.8194885,4.81948852 C14.9191823,4.91918225 14.9671936,5.09841918 14.921875,5.23437499 L14.578125,6.26562499 C14.5349778,6.39506673 14.5984192,6.56561279 14.7085686,6.63904571 L15.7914314,7.36095428 C15.9066207,7.43774711 16.0922852,7.54614257 16.2319336,7.61596679 L16.7680664,7.8840332 C16.8961598,7.94807989 16.9343872,8.09841918 16.8609543,8.20856857 L16.1390457,9.29143142 C16.0622529,9.40662066 16,9.61770248 16,9.74769449 L16,10.7523055 C16,10.8891034 15.9015808,11.0328064 15.765625,11.078125 L14.734375,11.421875 C14.6049333,11.4650222 14.4538574,11.5922852 14.3840332,11.7319336 L14.1159668,12.2680664 C14.0519201,12.3961598 13.9215317,12.5784683 13.8258133,12.6741867 L13.1741867,13.3258133 Z M8.5,13 C8.77614237,13 9,12.7761424 9,12.5 C9,12.2238576 8.77614237,12 8.5,12 C8.22385763,12 8,12.2238576 8,12.5 C8,12.7761424 8.22385763,13 8.5,13 Z M6.5,7 C6.77614237,7 7,6.77614237 7,6.5 C7,6.22385763 6.77614237,6 6.5,6 C6.22385763,6 6,6.22385763 6,6.5 C6,6.77614237 6.22385763,7 6.5,7 Z" id="path-6"></path>
        <filter x="-50%" y="-50%" width="200%" height="200%" filterUnits="objectBoundingBox" id="filter-7">
            <feOffset dx="0" dy="0.5" in="SourceAlpha" result="shadowOffsetOuter1"></feOffset>
            <feColorMatrix values="0 0 0 0 0   0 0 0 0 0   0 0 0 0 0  0 0 0 0.06 0" type="matrix" in="shadowOffsetOuter1"></feColorMatrix>
        </filter>
        <path d="M7.3840332,6.73193359 C7.4480799,6.60384021 7.5,6.3840332 7.5,6.25 L7.5,6.25 C7.5,6.11192881 7.45385742,5.90771484 7.3840332,5.76806641 L7.1159668,5.23193359 C7.0519201,5.10384021 7.10701752,5 7.25234222,5 L7.74765778,5 C7.88702254,5 8,5.11770248 8,5.24769449 L8,6.25230551 C8,6.3891034 8.04614258,6.59228516 8.1159668,6.73193359 L8.3840332,7.26806641 C8.4480799,7.39615979 8.38229752,7.5 8.25230551,7.5 L7.24769449,7.5 C7.1108966,7.5 7.04614258,7.40771484 7.1159668,7.26806641 L7.3840332,6.73193359 Z" id="path-8"></path>
        <filter x="-50%" y="-50%" width="200%" height="200%" filterUnits="objectBoundingBox" id="filter-9">
            <feOffset dx="0" dy="0.5" in="SourceAlpha" result="shadowOffsetOuter1"></feOffset>
            <feColorMatrix values="0 0 0 0 0   0 0 0 0 0   0 0 0 0 0  0 0 0 0.06 0" type="matrix" in="shadowOffsetOuter1"></feColorMatrix>
        </filter>
    </defs>
    <g id="Flag-Kit" stroke="none" stroke-width="1" fill="none" fill-rule="evenodd">
        <g id="CEU">
            <g id="BE-Copy-9" transform="translate(1.000000, 1.000000)">
                <mask id="mask-3" fill="white">
                    <use xlink:href="#path-2"></use>
                </mask>
                <g id="Mask">
                    <use fill="black" fill-opacity="1" filter="url(#filter-4)" xlink:href="#path-2"></use>
                    <use fill="url(#linearGradient-1)" fill-rule="evenodd" xlink:href="#path-2"></use>
                </g>
                <rect id="Mask-Copy" fill="url(#linearGradient-5)" mask="url(#mask-3)" x="0" y="0" width="21" height="15"></rect>
                <g id="Rectangle-1073" mask="url(#mask-3)">
                    <use fill="black" fill-opacity="1" filter="url(#filter-7)" xlink:href="#path-6"></use>
                    <use fill="url(#linearGradient-1)" fill-rule="evenodd" xlink:href="#path-6"></use>
                </g>
                <g id="Rectangle-1078" mask="url(#mask-3)">
                    <use fill="black" fill-opacity="1" filter="url(#filter-9)" xlink:href="#path-8"></use>
                    <use fill="url(#linearGradient-1)" fill-rule="evenodd" xlink:href="#path-8"></use>
                </g>
                <rect id="Depth" mask="url(#mask-3)" x="0" y="0" width="21" height="15" rx="1.5"></rect>
            </g>
        </g>
    </g>
</svg>

<svg width="23" height="17" viewBox="0 0 23 17" xmlns="http://www.w3.org/2000/svg" xmlns:xlink="http://www.w3.org/1999/xlink"><title>CEU</title><defs><linearGradient x1="50%" y1="0%" x2="50%" y2="100%" id="c"><stop stop-color="#FFF" offset="0%"/><stop stop-color="#F0F0F0" offset="100%"/></linearGradient><rect id="a" width="21" height="15" rx="1.5"/><filter x="-50%" y="-50%" width="200%" height="200%" filterUnits="objectBoundingBox" id="b"><feOffset dy=".5" in="SourceAlpha" result="shadowOffsetOuter1"/><feGaussianBlur stdDeviation=".5" in="shadowOffsetOuter1" result="shadowBlurOuter1"/><feColorMatrix values="0 0 0 0 0 0 0 0 0 0 0 0 0 0 0 0 0 0 0.16 0" in="shadowBlurOuter1"/></filter><linearGradient x1="50%" y1="0%" x2="50%" y2="100%" id="d"><stop stop-color="#19BFBF" offset="0%"/><stop stop-color="#10ACAC" offset="100%"/></linearGradient><path d="M13.17 13.33c-.1.1-.25.1-.34 0l-.66-.66c-.1-.1-.2-.27-.25-.4l-.34-1.04a.37.37 0 0 0-.33-.23c-.14 0-.22.1-.19.25l.38 1.5a.5.5 0 0 1-.12.43l-.14.14c-.1.1-.26.1-.36 0l-.14-.14a.69.69 0 0 1-.18-.43v-.5c0-.14-.05-.34-.12-.48l-.26-.54a.46.46 0 0 0-.37-.23h-1c-.14 0-.34.05-.48.12l-.54.26a.69.69 0 0 0-.3.35l-.35 1.04a.67.67 0 0 1-.31.35l-.54.26a.56.56 0 0 1-.46 0l-.54-.26a.44.44 0 0 1-.23-.37v-1.5c0-.14.12-.25.25-.25h1c.14 0 .25-.1.25-.25v-.5c0-.14.03-.35.08-.48l.34-1.04a.36.36 0 0 1 .33-.23h.5c.14 0 .34-.05.48-.12l.54-.26c.13-.07.34-.12.48-.12h.5c.14 0 .25-.12.25-.25a.7.7 0 0 1 .18-.43l.14-.14c.1-.1.23-.09.3.05l.26.54c.07.13.24.23.37.23h1c.14 0 .28-.1.33-.23l.34-1.04a.36.36 0 0 1 .33-.23h.5c.14 0 .25-.12.25-.25 0-.14-.1-.25-.25-.25h-.5a.25.25 0 0 1-.25-.25v-.5c0-.14.05-.34.12-.48l.26-.54a.38.38 0 0 0-.06-.41l-.14-.14a.25.25 0 0 0-.35 0l-.66.65c-.1.1-.17.28-.17.42v.5c0 .14-.03.35-.08.48l-.34 1.04a.37.37 0 0 1-.33.23.7.7 0 0 1-.43-.18l-.14-.14a.71.71 0 0 1-.18-.43c0-.14-.1-.2-.23-.13l-.54.26a.38.38 0 0 1-.41-.06l-.14-.14A.69.69 0 0 1 9 5.75v-.5a.7.7 0 0 1 .17-.42l.66-.66.34-.34 1.16-1.16c.1-.1.27-.2.4-.25l1.04-.34c.13-.05.34-.08.48-.08h.5c.14 0 .3.1.37.23l.26.54c.07.13.12.35.12.48v1c0 .14.08.33.18.43l.14.14c.1.1.15.28.1.41l-.34 1.04c-.05.13.02.3.13.37l1.08.72c.12.08.3.19.44.26l.54.26c.13.07.16.22.1.33l-.73 1.08a.99.99 0 0 0-.14.46v1c0 .14-.1.28-.23.33l-1.04.34a.67.67 0 0 0-.35.31l-.26.54a2 2 0 0 1-.3.4l-.65.66zM8.5 13a.5.5 0 1 0 0-1 .5.5 0 0 0 0 1zm-2-6a.5.5 0 1 0 0-1 .5.5 0 0 0 0 1z" id="g"/><filter x="-50%" y="-50%" width="200%" height="200%" filterUnits="objectBoundingBox" id="f"><feOffset dy=".5" in="SourceAlpha" result="shadowOffsetOuter1"/><feColorMatrix values="0 0 0 0 0 0 0 0 0 0 0 0 0 0 0 0 0 0 0.06 0" in="shadowOffsetOuter1"/></filter><path d="M7.38 6.73c.07-.13.12-.35.12-.48 0-.14-.05-.34-.12-.48l-.26-.54C7.05 5.1 7.1 5 7.25 5h.5c.14 0 .25.12.25.25v1c0 .14.05.34.12.48l.26.54c.07.13 0 .23-.13.23h-1c-.14 0-.2-.1-.13-.23l.26-.54z" id="i"/><filter x="-50%" y="-50%" width="200%" height="200%" filterUnits="objectBoundingBox" id="h"><feOffset dy=".5" in="SourceAlpha" result="shadowOffsetOuter1"/><feColorMatrix values="0 0 0 0 0 0 0 0 0 0 0 0 0 0 0 0 0 0 0.06 0" in="shadowOffsetOuter1"/></filter></defs><g transform="translate(1 1)" fill="none" fill-rule="evenodd"><mask id="e" fill="#fff"><use xlink:href="#a"/></mask><use fill="#000" filter="url(#b)" xlink:href="#a"/><use fill="url(#c)" xlink:href="#a"/><path fill="url(#d)" mask="url(#e)" d="M0 0h21v15H0z"/><g mask="url(#e)"><use fill="#000" filter="url(#f)" xlink:href="#g"/><use fill="url(#c)" xlink:href="#g"/></g><g mask="url(#e)"><use fill="#000" filter="url(#h)" xlink:href="#i"/><use fill="url(#c)" xlink:href="#i"/></g><rect mask="url(#e)" width="21" height="15" rx="1.5"/></g></svg>
